X: 5
T: The Connaught Heifers
R: reel
M: 4/4
L: 1/8
K: Dmaj
|:F3G A2BG|A2BG AGFD|FEFG AG G2|DG G2 =cAAG|
FEFG A2BG|A2BG AGFD|FEFG AG G2|DG G2 =cAAg||
|:fdec d2cA|A2BG ABdg|fdec d2cA|(3Bcd AG FDDg|
fdec d2cA|A2BG ABde|f2fd edcA|(3Bcd AG FD D2||


Tune 970	Setting 27822

